X: 4
T: Doctor MacLeod Of Alnwick
Z: ceolachan
S: https://thesession.org/tunes/6515#setting24116
R: barndance
M: 4/4
L: 1/8
K: Amix
|: a>f |e2 c<e .A2 A2 | c>BA>c e2 A>c | d2 B<d .G2 G2 | B>AG>B d2 a>f |
e2 c<e .A2 A2 | c>BA>c e2 A>f | g2 e>a e>dc>B | A4 .A2 :|
|: e/f/g |a2- a>f e2 .a2 | c<Aec a2 e>f | g2- g>e d2 g2 | B<Gd<B .g2 e/f/g |
a2- a>f e2 .a2 | c<Aec a2 e>f | g2 e>a e>dc>B | A4 .A2 :|
|: e2 |A>ec<e e>Ac<A | A>ec<A e2 d>B | GdB<d dGB<G | GdBG d2 e2 |
A>ec<e e>Ac<A | A>ec<e e2- e>f | g2 e>a e>dc>B | A4 .A2 :|
|: e/f/g |a2 e.a c.Ae.c | a2 e.c a2 e.f | g2 d.g B.Gd.B | g2 d.B g2 e/f/g |
a2 e.a c.Ae.c | a2 e.c a2 e.f | g2 e>a e>dc>B | A4 .A2 :|
